dist/images/icons/instagram_color.svg

<svg width="24" height="24" viewBox="0 0 24 24" fill="none" xmlns="http://www.w3.org/2000/svg">
<path d="M12 2.16094C15.2063 2.16094 15.5859 2.175 16.8469 2.23125C18.0188 2.28281 18.6516 2.47969 19.0734 2.64375C19.6313 2.85938 20.0344 3.12188 20.4516 3.53906C20.8734 3.96094 21.1313 4.35938 21.3469 4.91719C21.5109 5.33906 21.7078 5.97656 21.7594 7.14375C21.8156 8.40937 21.8297 8.78906 21.8297 11.9906C21.8297 15.1969 21.8156 15.5766 21.7594 16.8375C21.7078 18.0094 21.5109 18.6422 21.3469 19.0641C21.1313 19.6219 20.8687 20.025 20.4516 20.4422C20.0297 20.8641 19.6313 21.1219 19.0734 21.3375C18.6516 21.5016 18.0141 21.6984 16.8469 21.75C15.5813 21.8062 15.2016 21.8203 12 21.8203C8.79375 21.8203 8.41406 21.8062 7.15313 21.75C5.98125 21.6984 5.34844 21.5016 4.92656 21.3375C4.36875 21.1219 3.96563 20.8594 3.54844 20.4422C3.12656 20.0203 2.86875 19.6219 2.65313 19.0641C2.48906 18.6422 2.29219 18.0047 2.24063 16.8375C2.18438 15.5719 2.17031 15.1922 2.17031 11.9906C2.17031 8.78438 2.18438 8.40469 2.24063 7.14375C2.29219 5.97187 2.48906 5.33906 2.65313 4.91719C2.86875 4.35938 3.13125 3.95625 3.54844 3.53906C3.97031 3.11719 4.36875 2.85938 4.92656 2.64375C5.34844 2.47969 5.98594 2.28281 7.15313 2.23125C8.41406 2.175 8.79375 2.16094 12 2.16094ZM12 0C8.74219 0 8.33438 0.0140625 7.05469 0.0703125C5.77969 0.126563 4.90313 0.332812 4.14375 0.628125C3.35156 0.9375 2.68125 1.34531 2.01563 2.01562C1.34531 2.68125 0.9375 3.35156 0.628125 4.13906C0.332812 4.90313 0.126563 5.775 0.0703125 7.05C0.0140625 8.33437 0 8.74219 0 12C0 15.2578 0.0140625 15.6656 0.0703125 16.9453C0.126563 18.2203 0.332812 19.0969 0.628125 19.8563C0.9375 20.6484 1.34531 21.3188 2.01563 21.9844C2.68125 22.65 3.35156 23.0625 4.13906 23.3672C4.90313 23.6625 5.775 23.8687 7.05 23.925C8.32969 23.9812 8.7375 23.9953 11.9953 23.9953C15.2531 23.9953 15.6609 23.9812 16.9406 23.925C18.2156 23.8687 19.0922 23.6625 19.8516 23.3672C20.6391 23.0625 21.3094 22.65 21.975 21.9844C22.6406 21.3188 23.0531 20.6484 23.3578 19.8609C23.6531 19.0969 23.8594 18.225 23.9156 16.95C23.9719 15.6703 23.9859 15.2625 23.9859 12.0047C23.9859 8.74688 23.9719 8.33906 23.9156 7.05938C23.8594 5.78438 23.6531 4.90781 23.3578 4.14844C23.0625 3.35156 22.6547 2.68125 21.9844 2.01562C21.3188 1.35 20.6484 0.9375 19.8609 0.632812C19.0969 0.3375 18.225 0.13125 16.95 0.075C15.6656 0.0140625 15.2578 0 12 0Z" fill="#000100"/>
<path d="M12 5.83594C8.59688 5.83594 5.83594 8.59688 5.83594 12C5.83594 15.4031 8.59688 18.1641 12 18.1641C15.4031 18.1641 18.1641 15.4031 18.1641 12C18.1641 8.59688 15.4031 5.83594 12 5.83594ZM12 15.9984C9.79219 15.9984 8.00156 14.2078 8.00156 12C8.00156 9.79219 9.79219 8.00156 12 8.00156C14.2078 8.00156 15.9984 9.79219 15.9984 12C15.9984 14.2078 14.2078 15.9984 12 15.9984Z" fill="#000100"/>
<path d="M19.8469 5.5922C19.8469 6.38908 19.2 7.03127 18.4078 7.03127C17.6109 7.03127 16.9688 6.38439 16.9688 5.5922C16.9688 4.79533 17.6156 4.15314 18.4078 4.15314C19.2 4.15314 19.8469 4.80001 19.8469 5.5922Z" fill="#000100"/>
</svg>

<svg width="24" height="24" fill="none" xmlns="http://www.w3.org/2000/svg"><path d="M12 2.16c3.206 0 3.586.015 4.847.071 1.172.052 1.805.249 2.226.413a3.71 3.71 0 011.379.895c.421.422.68.82.895 1.378.164.422.36 1.06.412 2.227.057 1.265.07 1.645.07 4.847 0 3.206-.013 3.586-.07 4.846-.051 1.172-.248 1.805-.412 2.227a3.714 3.714 0 01-.895 1.378 3.69 3.69 0 01-1.379.895c-.421.165-1.059.361-2.226.413-1.266.056-1.645.07-4.847.07-3.206 0-3.586-.014-4.847-.07-1.172-.052-1.805-.248-2.226-.413a3.71 3.71 0 01-1.379-.895 3.691 3.691 0 01-.895-1.378c-.164-.422-.36-1.06-.412-2.227-.057-1.265-.07-1.645-.07-4.846 0-3.207.013-3.586.07-4.847.051-1.172.248-1.805.412-2.227.216-.558.478-.96.895-1.378.422-.422.82-.68 1.379-.895.421-.164 1.059-.361 2.226-.413 1.261-.056 1.64-.07 4.847-.07zM12 0C8.742 0 8.334.014 7.055.07 5.78.127 4.903.333 4.144.628a5.857 5.857 0 00-2.128 1.388A5.88 5.88 0 00.628 4.139C.333 4.903.127 5.775.07 7.05.014 8.334 0 8.742 0 12s.014 3.666.07 4.945c.057 1.275.263 2.152.558 2.911.31.792.717 1.463 1.388 2.128a5.866 5.866 0 002.123 1.383c.764.296 1.636.502 2.911.558 1.28.056 1.688.07 4.945.07 3.258 0 3.666-.014 4.946-.07 1.275-.056 2.151-.262 2.91-.558a5.866 5.866 0 002.124-1.383 5.866 5.866 0 001.383-2.123c.295-.764.501-1.636.558-2.911.056-1.28.07-1.688.07-4.945 0-3.258-.014-3.666-.07-4.946-.057-1.275-.263-2.151-.558-2.91a5.62 5.62 0 00-1.374-2.133A5.866 5.866 0 0019.861.633C19.097.338 18.225.13 16.95.075 15.666.015 15.258 0 12 0z" fill="#000100"/><path d="M12 5.836A6.166 6.166 0 005.836 12 6.166 6.166 0 0012 18.164 6.166 6.166 0 0018.164 12 6.166 6.166 0 0012 5.836zm0 10.162A3.999 3.999 0 1112.001 8 3.999 3.999 0 0112 15.998zm7.847-10.406a1.44 1.44 0 11-2.879 0 1.44 1.44 0 012.879 0z" fill="#000100"/></svg>
